!!!OTL: 96e. Der verwundete Knabe.
!!!ARE: Europa, Mitteleuropa, Deutschland, Brandenburg; Sachsen; Odenwald
!!!SCT: E0096
!!!TXL: @@DE
!!!YEM: Copyright 1995, estate of Helmut Schaffrath.
**kern	**text
*ICvox	*
*M3/4	*
*k[b-]	*
*F:	*
!LO:TX:a:t=Langſam.	!
!LO:TX:a:t=Vielfach mündlich aus dem Brandenburgiſchen, Sachſen, Mecklenburg-Strehlitʒ rc. 1838. Odenwald, Trier.	!
{8c	Es
8f	wollt
8g	ein
=1	=1
8aL	Mägdlein
8gJ	.
8f	.
8cc	ſehr
16ddL	früh
16cc	.
16b-J	.
16a	auf-
=2	=2
4g	-ſtehn
8r}	.
{8c	Es
8f	wollt
8g	ein
=3	=3
8aL	Mägdlein
8gJ	.
8f	.
8cc	ſehr
16ddL	früh
16cc	.
16b-J	.
16a	auf-
=4	=4
4g	-ſtehn
8r}	.
{16ccL	und
16b-J	.
8a	in
8cc	den
=5	=5
(8cc	grü-
16b-)	.
16a	-nen
8b-	Wald,
16b-L	und
16aJ	.
8g	in
8b-	den
=6	=6
(8b-/	grü-
16a)	.
16g	-nen
8a}	Wald
{16ccL	ſpa-
16b-J	.
8a	-ʒie-
8g	-ren
=7	=7
8.fL	gehn,
16g	.
8aJ	.
16ccL	ſpa-
16b-J	.
8a	-ʒie-
8g	-ren
=8	=8
4f	gehn.
8r}	.
{16ccL	und
16b-J	.
8a	in
8cc	den
=9	=9
(8cc	grü-
16b-)	.
16a	-nen
8b-	Wald,
16b-L	und
16aJ	.
8g	in
8b-	den
=10	=10
(8b-/	grü-
16a)	.
16g	-nen
8a}	Wald
{16ccL	ſpa-
16b-J	.
8a	-ʒie-
8g	-ren
=11	=11
8.fL	gehn,
16g	.
8aJ	.
16ccL	ſpa-
16b-J	.
8a	-ʒie-
8g	-ren
=12	=12
4f	gehn.
8r}	.
==	==
!!!AGN: erzaehlendes Volks - Lied, Sage, Liebe, Leid, Tod, Ballade ?
!!!ONB: ESAC (Essen Associative Code) Database: ERK1
!!!AMT: simple triple
!!!AIN: vox
!!!EED: Helmut Schaffrath
!!!EEV: 1.0
!!!GTL: Liebesgeschichten mit tragischem Schluss
!!!URL-scan: https://rosdok.uni-rostock.de/mcrviewer/recordIdentifier/rosdok_ppn745146120/iview2/phys_0407.iview2?x=-422.27491384562836&y=2360.4795173068997&scale=0.554360769283424&rotation=0&layout=singlePageLayout
!!!ENC: Anna Maria Matuszewska
!!!EEV: 2024/11/28
*-	*-
